X: 915
T: the Black Rogue   #2
R: jig
%S: s:2 b:14(7+7)
B: O'Neill's 1850 #915
O: J.O'Neill
Z: Tom Keays (htkeays@mailbox.syr.edu)
%abc 1.6
M: 6/8
L: 1/8
K: Em	% and/or G
"^A"|: g | dBB BAB |1 dBB B2 :|2 GEE E2 :|3 dBB BAG | ABc BAB | GEE E2 "^B":: d | gfg aga |
| bge edB | gfg aga | bge (e> || fg/a/) | bag agf | gef g2e | dBB BAB | GEE E2 :|
